X:140
T:Colquhalzie Fir Trees
R:Strathspey
C:James Stewart-Robertson
B:The Athole Collection
M:C
L:1/8
K:G
B|G>AB>g dg|d>Bg>B dg|G>AB>g dg|a>fg>B A/A/A A>B|
G>AB>g dg|d>Bg>B dd|e<g d>B e>dB>g|a>fg>B A/A/A (A||B)|
G/G/G B>c dd|g>ed>B A/A/A A>B|G/G/G B>c dg|
a/g/f/e/ g>e dd|e>fg>e dd|e<gd>B A/A/A A||
